assets/Plunger/Flat/plunger_flat.svg

<svg width="32" height="32" viewBox="0 0 32 32" fill="none" xmlns="http://www.w3.org/2000/svg">
<path d="M29.4142 2.58579C30.1953 3.36683 30.1953 4.63317 29.4142 5.41421L17.3285 17.5L14 18L14.5 14.6716L26.5858 2.58579C27.3668 1.80474 28.6332 1.80474 29.4142 2.58579Z" fill="#FBB8AB"/>
<path d="M14.8284 24.9498C16.3427 23.4355 16.5521 21.1104 15.4566 19.3718L17.4142 17.4142L14.5858 14.5858L12.6282 16.5434C10.8896 15.4479 8.56453 15.6573 7.0502 17.1716L5.52511 18.6967L5.41421 18.5858C4.63316 17.8048 3.36683 17.8048 2.58579 18.5858C1.80474 19.3669 1.80474 20.6332 2.58579 21.4142L10.5858 29.4142C11.3668 30.1953 12.6332 30.1953 13.4142 29.4142C14.1953 28.6332 14.1953 27.3669 13.4142 26.5858L13.3033 26.4749L14.8284 24.9498Z" fill="#F8312F"/>
</svg>

<svg xmlns="http://www.w3.org/2000/svg" width="32" height="32" fill="none"><path fill="#FBB8AB" d="M29.414 2.586a2 2 0 0 1 0 2.828L17.328 17.5 14 18l.5-3.328L26.586 2.586a2 2 0 0 1 2.828 0Z"/><path fill="#F8312F" d="M14.828 24.95a4.502 4.502 0 0 0 .629-5.578l1.957-1.958-2.828-2.828-1.958 1.957a4.502 4.502 0 0 0-5.578.629l-1.525 1.525-.11-.111a2 2 0 0 0-2.83 2.828l8 8a2 2 0 1 0 2.83-2.828l-.112-.111 1.525-1.525Z"/></svg>
